X:31
T:Jig of Slurs
M:6/8
L:1/8
R:jig
D:Highland Sun: Celtic Crossover
N:Learned from John Ott
Z:Michael Abraham Shulman
K:D
|:A2d dcd|Bdd Add|Bdd Add|~e3 edB|
A2d dcd|Bdd Add|Bdd cde|fdc d3:|
|:A2f fef|a2f fed|B2e ede|fef edB|
A2f fef|a2f fed|Add cde|fdc d3:|
K:G
|:G2g gfg|agf g2d|G2g gfg|agf g2d|
G2g gfg|agf g3|~e3 efg|fed e3:|
|:GBB Bdd|dee edB|GBB Bdd|dee efg|
GBB Bdd|dee edB|~e3 efg|fed e3:|
